X:1
T:4 Lieder, Op. 1 (Lieder für eine Singstimme mit Pianofortebegleitung)
T:Niederländisches Wiegenlied
T:4 Lieder, Op. 1
T:Clara Faisst
T:2. Niederländisches Wiegenlied
T:Oscar Ludwig Bernhard Wolff
T:Creative Commons copyright waiver (CC0 1.0 Universal)
T:Creative Commons copyright waiver (CC0 1.0 Universal)
C:Clara Faisst
Z:Oscar Ludwig Bernhard Wolff
Z:Creative Commons copyright waiver (CC0 1.0 Universal)
%%score 1 { ( 2 4 ) | ( 3 5 ) }
L:1/8
Q:1/4=90
M:6/8
K:D
V:1 treble nm="Voice\nGesang"
V:2 treble nm="Piano"
V:4 treble 
V:3 bass 
V:5 bass 
V:1
"^Leise." z6 | z4 z!mp! A | A3 B2 A | A3 F2 E | D3 F2 A | E3 z2!mp! E |!<(! F3 A2 A!<)! | %7
w: |1.   Es|dun kelt mein|Rös- chen, nun|spie- le nicht|mehr, ich|leg’ dich zur|
w: |2.   Da|liegst du mein|Al- les in|fried- li- cher|Ruh’, nun|schliesst sich dein|
w: |3. Glück-|se- ling mein|Rös- chen, wer|schlum- mert wie|du, o|blei- be dir|
!>(! d3 c z B | c3 B2 A!>)! |[Q:1/4=87] A3 z2 z | z6 | z6 | z2 z z2!mp! F |[Q:1/4=92] F3 G2 F | %14
w: Ru- he, dich|schlä- fert so|sehr.|||Du|liegst in der|
w: Münd- chen, die|Äug- lein gehn|zu.|||Doch|sieh’, wie der|
w: im- mer die|schuld- lo- se|Ruh!|||Die|Lie- be der|
 B3 c2 d | c3 ^A2 F | (B3 A) z D | G3 ^G2 G | A3 c z C | E3 F2 E | C3 z2!p! C |!<(! F3 ^G2 G | %22
w: Wie- ge so|warm und so|sacht, _ _||||||
w: En- gel im|Trau- me süss|lacht! _ 1\-3 mög|Gott dich be-|hü- ten, mein|Kind, gu- te|Nacht! mög|Gott dich be-|
w: Mut- ter dich|sor- gend be-|wacht, _ _|_ _ _|||||
 A3 ^A!<)! z A |!<(! B3 c2 c!<)! |!mf!!>(! d3 c2 =c!>)! | B3 (d^c) B | A3 z2 z | %27
w: |||||
w: hü- ten, mög|Gott dich be-|hü- ten, mein|Kind gu- * te|Nacht!|
w: |||||
!pp![Q:1/4=88] B2 A B2 A | A3 z2!p! A | B3 z c d | A3 z2!pp! A |[Q:1/4=86] e3 B2 c | %32
w: |||||
w: Gu- te gu- te|Nacht! Mein|Kind gu- te|Nacht! Mein|Kind, gu- te|
w: |||||
[Q:1/4=84] d3 z z2 |[Q:1/4=80] z6 |[Q:1/4=71] z6 |] %35
w: |||
w: Nacht!|||
w: |||
V:2
!p! A3 A3 | A3 A3 | !arpeggio![Adfa]3 !arpeggio![Bdfb]2 [Adfa] | !arpeggio![Acea]3 z2 z | %4
 !arpeggio![Adfa]3 !arpeggio![Bdfb]2 [Adfa] | [Acea]3 z2 z | !arpeggio![A,DF]3 !arpeggio![A,EA]3 | %7
 !arpeggio![DFd]3 c2 B | !arpeggio![Ece]3 d2 c | !arpeggio![EAc]!pp! (C/A/e) z (e/A/E) | %10
 z (F/d/a) z (a/d/F) | z (E/c/a) z (a/c/E) |!<(! z (F/d/a) z (a/d/F)!<)! | z (F/c/^a) z (a/c/F) | %14
 z (F/d/b) z (b/d/F) | z (C/^A/f) z ([Ae]/F/C) | z (B,/F/[Bd]) z ([Ad]/F/=C) | %17
 z (B,/G/d) z (d/^G/B,) | !arpeggio![EAc]3 !arpeggio![EAe]2 z | [B,DE]3 F2 E |!p! C3 z2 z | %21
!<(! [A,CF]3 [B,D^G] (E/G/e)!<)! | [CEA]3 [CE^A] (F/A/f) |!<(! [DFB]3 c3!<)! | %24
!mf!!>(! d3 c2 =c!>)! | [B,DG]2 [DGB] [Bd][A^c][GB] | !arpeggio![DFA]3 z2 z | %27
!pp! !arpeggio![cg]3 !arpeggio![cg]3 | [Adf]3 z2 z | !arpeggio![DGd]6 | !arpeggio![DFd]3 z2 z | %31
!pp! ([EGA]3 [Bg]2 [Acf] | [Fd]3)"^dim." z2 [A,-FA] | [A,DF] z2 z2 [A,-FA] | [A,DF] z2 z2 z |] %35
V:3
!ped! z (D,,/A,,/F,) z (F,/A,,/D,,)!ped-up! |!ped! z (D,,/A,,/F,) z (F,/A,,/D,,)!ped-up! | %2
!ped! z (D,,/A,,/F,) z (F,/A,,/D,,)!ped-up! |!ped! z (D,,/A,,/G,) z (G,/A,,/D,,)!ped-up! | %4
!ped! z (D,,/A,,/F,) z (F,/A,,/D,,)!ped-up! |!ped! z (D,,/A,,/G,) z (G,/A,,/D,,)!ped-up! | %6
!ped! z (D,,/A,,/F,) z (E,/A,,/C,,)!ped-up! |!ped! z (B,,,/B,,/F,) z (E,/B,,/E,,)!ped-up! | %8
!ped! z (E,,/A,,/E,) z (E,/B,,/E,,)!ped-up! |!ped! A,,3 B,2 A,!ped-up! | %10
!ped! [D,F,A,]3 F2 D!ped-up! |!ped! A,3 B,2 A,-!ped-up! |!ped! [D,F,A,]3 D,,2 z!ped-up! | %13
!mp!!ped! F,,3 E,3!ped-up! |!ped! D,3 B,,3!ped-up! |!ped! F,3 F,,3!ped-up! | %16
!ped! D,,3 D,3!ped-up! |!ped! G,,3 E,,3!ped-up! |!ped! z (A,,/E,/C) z (C/E,/A,,)!ped-up! | %19
!ped! z (E,,/B,,/^G,) z (G,/B,,/E,,)!ped-up! |!ped! z (A,,/E,/C) z (C/E,/A,,)!ped-up! | %21
!ped! z (F,,/C,/A,) [E,,E,]3!ped-up! |!ped! z (A,,/E,/C) [F,,F,]3!ped-up! | %23
!ped! z (B,,/F,/D) z (C/E,/A,,)!ped-up! |!ped! z (D,,/A,,/F,) z (F,/A,,/D,,)!ped-up! | %25
!ped! z (G,,/D,/B,) z (B,/D,/G,,)!ped-up! |!ped! z (D,,/A,,/F,) z (F,/A,,/D,,)!ped-up! | %27
!ped! z (D,,/A,,/E,) z (E,/A,,/D,,)!ped-up! |!ped! z (D,,/A,,/F,) z (F,/A,,/D,,)!ped-up! | %29
!ped! z (D,,/A,,/G,) z (G,/A,,/D,,)!ped-up! |!ped! z (D,,/A,,/F,) z (F,/A,,/D,,)!ped-up! | %31
!ped! z (D,,/A,,/E,) z (E,/A,,/A,,,)!ped-up! |!ped! z (D,,/A,,/F,) z (F,/A,,/D,,) | %33
 z (D,,/A,,/F,) z (F,/A,,/D,,) | z (D,,/A,,/F,) z (F,/A,,/!fermata!D,,)!ped-up! |] %35
V:4
 x6 | x6 | x6 | x6 | x6 | x6 | x6 | x3 !arpeggio![E^G]3 | x3 !arpeggio![E^G]3 | x6 | x6 | x6 | x6 | %13
 x6 | x6 | x6 | x6 | x6 | x6 | x3 [B,D]3 | x6 | x6 | x6 | x3 [GB][F=A][EG] | [DF]3- [DF]3 | x3 D3 | %26
 x6 | B2 A B2 A | x6 | x6 | x6 | x6 | x6 | x6 | x6 |] %35
V:5
 x6 | x6 | x6 | x6 | x6 | x6 | x6 | x6 | x6 | x3 [C,=G,]3 | x3 [D,A,]3 | [E,G,]3 [A,,G,]3 | x6 | %13
 x6 | x6 | x6 | x6 | x6 | x6 | x6 | x6 | x6 | x6 | x6 | x6 | x6 | x6 | x6 | x6 | x6 | x6 | x6 | %32
 x6 | x6 | x6 |] %35

